X:1
T: Dunkeld House
C:
R:Jig
Q:180
K:Em
M:6/8
L:1/16
B,2|E2F2E2 G4E2|B4E2 G4E2|F4D2 A2F2D2|d2F2D2 A2F2D2|E2F2E2 G4E2|B4E2 G4E2|B^cd2B2 A2F2A2|B2G2E2 E4B,2|
E2F2E2 G4E2|B4E2 G4E2|F4D2 A2F2D2|d2F2D2 A2F2D2|E2F2E2 G4E2|B4E2 G4E2|B^cd2B2 A2F2A2|B2G2E2 E4A2|
gab2g2 e2g2e2|gab2g2 e2g2e2|fga2f2 d2f2d2|fga2f2 d2f2d2|gab2g2 e2g2e2|gab2g2 e2g2e2|gab2g2 fga2f2|g2e2e2 e4a2|
gab2g2 e2g2e2|gab2g2 e2g2e2|fga2f2 d2f2d2|fga2f2 d2f2d2|efg2e2 fga2f2|gab2g2 efg2e2|def2d2 FGA2F2|B2G2E2 E4||
